exported-svg/lock.svg

<svg height="24" viewBox="0 0 24 24" width="24" xmlns="http://www.w3.org/2000/svg"><path d="m7 11v-3.5c0-3.03756612 2.46243388-5.5 5.5-5.5 3.0375661 0 5.5 2.46243388 5.5 5.5v3.5h1.5c1.3807119 0 2.5 1.1192881 2.5 2.5v7c0 1.3807119-1.1192881 2.5-2.5 2.5h-14c-1.38071187 0-2.5-1.1192881-2.5-2.5v-7c0-1.3807119 1.11928813-2.5 2.5-2.5zm1 0h9v-3.5c0-2.48528137-2.0147186-4.5-4.5-4.5s-4.5 2.01471863-4.5 4.5zm-2.5 1c-.82842712 0-1.5.6715729-1.5 1.5v7c0 .8284271.67157288 1.5 1.5 1.5h14c.8284271 0 1.5-.6715729 1.5-1.5v-7c0-.8284271-.6715729-1.5-1.5-1.5z"/></svg>

<?xml version="1.0" encoding="UTF-8"?>
<svg width="24px" height="24px" viewBox="0 0 24 24" version="1.1" xmlns="http://www.w3.org/2000/svg" xmlns:xlink="http://www.w3.org/1999/xlink">
    <!-- Generator: Sketch 55.2 (78181) - https://sketchapp.com -->
    <title>lock</title>
    <desc>Created with Sketch.</desc>
    <g id="lock" stroke="none" stroke-width="1" fill="none" fill-rule="evenodd">
        <path d="M7,11 L7,7.5 C7,4.46243388 9.46243388,2 12.5,2 C15.5375661,2 18,4.46243388 18,7.5 L18,11 L19.5,11 C20.8807119,11 22,12.1192881 22,13.5 L22,20.5 C22,21.8807119 20.8807119,23 19.5,23 L5.5,23 C4.11928813,23 3,21.8807119 3,20.5 L3,13.5 C3,12.1192881 4.11928813,11 5.5,11 L7,11 Z M8,11 L17,11 L17,7.5 C17,5.01471863 14.9852814,3 12.5,3 C10.0147186,3 8,5.01471863 8,7.5 L8,11 Z M5.5,12 C4.67157288,12 4,12.6715729 4,13.5 L4,20.5 C4,21.3284271 4.67157288,22 5.5,22 L19.5,22 C20.3284271,22 21,21.3284271 21,20.5 L21,13.5 C21,12.6715729 20.3284271,12 19.5,12 L5.5,12 Z" id="Combined-Shape" fill="#000000" fill-rule="nonzero"></path>
    </g>
</svg>
